dist/img/arrow-left.svg

<svg width="14" height="22" viewBox="0 0 14 22" fill="none" xmlns="http://www.w3.org/2000/svg">
<path id="Vector" d="M8.2016e-05 10.5142C-0.00413704 11.0773 0.232156 11.6165 0.651977 12.015L9.65428 20.4748C10.5361 21.3035 11.9665 21.3035 12.8506 20.4748C13.7324 19.6461 13.7324 18.3019 12.8506 17.4711L5.42426 10.5142L12.8273 3.55729C13.5911 2.7167 13.5404 1.46763 12.7092 0.686523C11.8779 -0.0946388 10.5467 -0.144175 9.65431 0.575497L0.652004 9.03525V9.03327C0.236384 9.4278 0.00218868 9.95906 8.2016e-05 10.5142Z" fill="#B7BABE"/>
</svg>

<svg width="14" height="22" fill="none" xmlns="http://www.w3.org/2000/svg"><path d="M0 10.514a2.049 2.049 0 00.652 1.501l9.002 8.46c.882.828 2.313.828 3.197 0a2.036 2.036 0 000-3.004l-7.427-6.957 7.403-6.957c.764-.84.713-2.09-.118-2.87-.831-.782-2.162-.831-3.055-.112L.652 9.035v-.002c-.416.395-.65.926-.652 1.481z" fill="#B7BABE"/></svg>
